lib/flags/m/800.svg

<svg xmlns="http://www.w3.org/2000/svg" fill="none" viewBox="0 0 20 15"><mask id="800_svg__a" width="20" height="15" x="0" y="0" mask-type="alpha" maskUnits="userSpaceOnUse"><path fill="#fff" d="M0 0H20V15H0z"/></mask><g mask="url(#800_svg__a)"><path fill="#FECA00" fill-rule="evenodd" d="M0 0V15H20V0H0Z" clip-rule="evenodd"/><mask id="800_svg__b" width="20" height="15" x="0" y="0" mask-type="alpha" maskUnits="userSpaceOnUse"><path fill="#fff" fill-rule="evenodd" d="M0 0V15H20V0H0Z" clip-rule="evenodd"/></mask><g mask="url(#800_svg__b)"><path fill="#272727" d="M0 0H20V2.5H0z"/><path fill="#D74800" d="M0 5H20V7.5H0z"/><path fill="#272727" d="M0 7.5H20V10H0z"/><path fill="#D74800" d="M0 12.5H20V15H0z"/><path fill="#F7FCFF" fill-rule="evenodd" d="M10 11.25C12.0711 11.25 13.75 9.57107 13.75 7.5C13.75 5.42893 12.0711 3.75 10 3.75C7.92893 3.75 6.25 5.42893 6.25 7.5C6.25 9.57107 7.92893 11.25 10 11.25Z" clip-rule="evenodd"/><path fill="#272727" fill-rule="evenodd" d="M8.54972 5.20546L7.88848 5.42243L8.54972 5.47904C8.54972 5.47904 8.65662 5.74051 8.54972 5.94463C8.52258 5.99644 8.45258 6.06283 8.36322 6.14756C8.1006 6.39662 7.67078 6.80423 7.67078 7.46646C7.67078 8.354 9.38361 8.75642 9.38361 8.75642V9.1781C9.38361 9.1781 9.58243 9.30158 8.44817 9.30158C7.46452 9.30158 7.52604 9.67498 7.55972 9.8794C7.56487 9.9107 7.56938 9.93804 7.56938 9.95946C7.56938 10.1209 8.04216 9.79808 8.26347 9.47671C8.37997 9.30754 8.86782 9.31647 9.36852 9.36288C9.40804 9.36654 9.77312 10.1399 9.45618 10.5394C9.32303 10.7072 8.86323 10.7291 8.57597 10.7427C8.42948 10.7497 8.32786 10.7545 8.33729 10.7755C8.34436 10.7912 8.43099 10.786 8.55691 10.7785C8.71408 10.7691 8.93244 10.7561 9.1337 10.7755C9.16424 10.7784 9.0458 10.8812 8.92603 10.9852C8.80269 11.0922 8.67795 11.2005 8.7131 11.2022C8.75262 11.204 8.9836 11.0761 9.19344 10.9598C9.36705 10.8636 9.52619 10.7755 9.55047 10.7755C9.70882 10.7755 9.8518 10.795 9.97721 10.8122C10.1868 10.8408 10.3474 10.8627 10.4484 10.7755C10.4796 10.7486 10.2991 10.7054 10.1152 10.6613C9.92562 10.6159 9.73234 10.5696 9.7628 10.5394C9.93702 10.3665 9.86424 10.0041 9.80692 9.71867C9.7812 9.59063 9.7586 9.47808 9.7628 9.40507C9.77772 9.14584 10.0519 9.28182 10.2674 9.38869C10.3618 9.43549 10.4449 9.47671 10.4901 9.47671C10.8982 9.47671 10.3914 8.96053 10.1133 8.6772C10.0889 8.65237 10.0663 8.62933 10.0462 8.60858C9.90475 8.46252 10.004 8.48215 10.2282 8.52649C10.3994 8.56034 10.6433 8.60858 10.9087 8.60858C11.5218 8.60858 11.9693 8.4094 11.8139 7.87007C11.7113 7.51425 11.1498 7.39318 10.5631 7.26669C10.2605 7.20145 9.95126 7.13477 9.69483 7.03369C9.06393 6.78502 9.0961 6.42247 9.1233 6.1159C9.12859 6.05627 9.1337 5.99877 9.1337 5.94463C9.1337 5.61212 9.69483 5.20546 9.69483 5.20546C9.69483 5.20546 9.43874 4.77637 9.01407 4.77637C8.5894 4.77637 8.54972 5.20546 8.54972 5.20546ZM9.70484 9.11036V8.79676C9.70484 8.79676 9.96706 8.78811 10.059 9.00871C10.151 9.22931 9.70484 9.11036 9.70484 9.11036Z" clip-rule="evenodd"/><path fill="#D74800" fill-rule="evenodd" d="M8.17303 4.19464L8.80651 4.94586L9.13457 4.86869L8.97724 4.11035L8.17303 4.19464Z" clip-rule="evenodd"/><path fill="#FFD018" fill-rule="evenodd" d="M8.99546 4.01298L9.03629 5.14238L9.57722 5.00928L9.80757 4.26959L8.99546 4.01298Z" clip-rule="evenodd"/><path fill="#D74800" fill-rule="evenodd" d="M8.48557 5.89941C8.60506 5.89941 8.70192 5.80497 8.70192 5.68848 8.70192 5.57198 8.60506 5.47754 8.48557 5.47754 8.36609 5.47754 8.26923 5.57198 8.26923 5.68848 8.26923 5.80497 8.36609 5.89941 8.48557 5.89941zM9.86029 4.2246 9.23049 4.9789 9.36345 5.28858 10.0829 5.00195 9.86029 4.2246zM11.3241 9.93338C11.3241 9.93338 12.4319 9.43851 12.4319 8.74645 12.4319 8.05439 10.6331 7.30054 10.6331 7.30054 10.6331 7.30054 9.57507 7.5427 10.052 7.86676 10.5289 8.19083 11.1679 8.31533 11.1679 8.74645 11.1679 9.17757 11.3429 9.58867 10.988 9.58867 10.6331 9.58867 11.3241 9.93338 11.3241 9.93338z" clip-rule="evenodd"/><path fill="#FFFDFF" fill-rule="evenodd" d="M9.7259 7.17383C9.7259 7.17383 9.33411 7.24265 9.35271 7.30629C9.40414 7.48221 9.93985 7.71134 10.1733 7.87C10.6502 8.19406 11.1024 8.15766 11.4388 7.94676C11.7752 7.73586 9.7259 7.17383 9.7259 7.17383Z" clip-rule="evenodd"/></g></g></svg>

<svg xmlns="http://www.w3.org/2000/svg" fill="none" viewBox="0 0 20 15"><mask id="800_svg__a" width="20" height="15" x="0" y="0" maskUnits="userSpaceOnUse"><path fill="#fff" d="M0 0h20v15H0z"/></mask><g mask="url(#800_svg__a)"><path fill="#FECA00" fill-rule="evenodd" d="M0 0v15h20V0H0z" clip-rule="evenodd"/><mask id="800_svg__b" width="20" height="15" x="0" y="0" maskUnits="userSpaceOnUse"><path fill="#fff" fill-rule="evenodd" d="M0 0v15h20V0H0z" clip-rule="evenodd"/></mask><g mask="url(#800_svg__b)"><path fill="#272727" d="M0 0h20v2.5H0z"/><path fill="#D74800" d="M0 5h20v2.5H0z"/><path fill="#272727" d="M0 7.5h20V10H0z"/><path fill="#D74800" d="M0 12.5h20V15H0z"/><path fill="#F7FCFF" fill-rule="evenodd" d="M10 11.25a3.75 3.75 0 100-7.5 3.75 3.75 0 000 7.5z" clip-rule="evenodd"/><path fill="#272727" fill-rule="evenodd" d="M8.55 5.205l-.661.217.66.057s.108.261 0 .466a1.046 1.046 0 01-.186.202c-.262.25-.692.657-.692 1.32 0 .887 1.713 1.29 1.713 1.29v.421s.198.124-.936.124c-.983 0-.922.373-.888.577.005.032.01.059.01.08 0 .162.472-.161.694-.482.116-.17.604-.16 1.105-.114.04.003.404.777.087 1.176-.133.168-.593.19-.88.204-.146.007-.248.011-.239.032.007.016.094.011.22.003.157-.009.375-.022.577-.003.03.003-.088.106-.208.21-.123.107-.248.215-.213.217.04.002.27-.126.48-.242.174-.096.333-.185.357-.185.159 0 .302.02.427.037.21.029.37.05.471-.037.032-.026-.149-.07-.333-.114-.19-.045-.383-.091-.352-.122.174-.173.101-.535.044-.82a1.497 1.497 0 01-.044-.314c.015-.26.289-.123.505-.016.094.046.177.088.222.088.408 0-.098-.517-.377-.8a13.806 13.806 0 01-.067-.068c-.141-.147-.042-.127.182-.083.171.034.415.083.68.083.614 0 1.061-.2.906-.739-.103-.356-.664-.477-1.25-.603-.303-.066-.613-.132-.87-.233-.63-.249-.598-.612-.57-.918.005-.06.01-.117.01-.171 0-.333.56-.74.56-.74s-.255-.429-.68-.429c-.425 0-.464.43-.464.43zM9.705 9.11v-.313s.262-.009.354.212c.092.22-.354.101-.354.101z" clip-rule="evenodd"/><path fill="#D74800" fill-rule="evenodd" d="M8.173 4.195l.634.75.328-.076-.158-.759-.804.085z" clip-rule="evenodd"/><path fill="#FFD018" fill-rule="evenodd" d="M8.995 4.013l.041 1.13.541-.134.23-.74-.812-.256z" clip-rule="evenodd"/><path fill="#D74800" fill-rule="evenodd" d="M8.486 5.9c.12 0 .216-.095.216-.212a.214.214 0 00-.216-.21.214.214 0 00-.217.21c0 .117.097.211.217.211zM9.86 4.225l-.63.754.133.31.72-.287-.223-.777zm1.464 5.708s1.108-.495 1.108-1.187c0-.692-1.799-1.446-1.799-1.446s-1.058.243-.581.567c.477.324 1.116.448 1.116.88 0 .43.175.841-.18.841s.336.345.336.345z" clip-rule="evenodd"/><path fill="#FFFDFF" fill-rule="evenodd" d="M9.726 7.174s-.392.069-.373.132c.051.176.587.405.82.564.477.324.93.288 1.266.077.336-.211-1.713-.773-1.713-.773z" clip-rule="evenodd"/></g></g></svg>
